X:225
T:Crieff Fair
B:Bremner, 1760 (via RSCDS Bk 10)
Z:Nigel Gatherer
M:4/4
L:1/8
K:Dm
d | ABAG FGAB | cdcA cdcB | ABAG FGAg | fde^c d2 d :|
A | defg afge | fdcA FGAc | defg afge | fde^c d2 d :|
A | defg afge | fdcA FGAc | AcFc dbag | fde^c d2 d :|
<end>
<start>
